build/img/daichi-grey.svg

<svg width="91" height="40" viewBox="0 0 91 40" fill="none" xmlns="http://www.w3.org/2000/svg">
<path d="M57.5427 13.2955C56.2313 13.6999 55.3837 14.2443 54.3601 15.2708C53.3206 16.344 52.7128 17.4949 52.377 18.9881C51.7053 22.0676 52.5369 25.0384 54.6 26.967C56.3432 28.6001 57.7826 29.0823 60.5974 28.9889C62.2766 28.9267 62.5645 28.8801 63.5401 28.4446C64.7556 27.8846 66.1949 26.6404 66.8027 25.6294C67.2025 24.9761 67.8102 23.2964 67.8102 22.8609C67.8102 22.6898 67.4584 22.6431 66.099 22.6431H64.3717L64.0678 23.3741C63.3642 25.0384 62.0847 25.816 60.0536 25.816C58.6302 25.816 58.0385 25.5983 57.1269 24.7584C56.3912 24.0896 56.0074 23.3275 55.7835 22.0365C55.3517 19.6102 56.3113 17.4483 58.2144 16.484C58.9341 16.1107 61.0772 16.0951 61.9088 16.4528C62.8204 16.8417 63.5881 17.6038 63.9879 18.5215L64.3717 19.3769H66.099C66.1978 19.3769 66.2914 19.3771 66.38 19.3773C67.2171 19.3791 67.6084 19.3799 67.7342 19.2026C67.8446 19.047 67.7506 18.7543 67.5741 18.2046C67.5527 18.1378 67.53 18.0672 67.5063 17.9926C67.0905 16.7017 66.5468 15.8618 65.5392 14.913C63.9879 13.4977 62.5645 13 60.0536 13.0155C58.9661 13.0155 58.1664 13.1088 57.5427 13.2955Z" fill="#A8B1BC"/>
<path fill-rule="evenodd" clip-rule="evenodd" d="M2.59086 13.4822C0.847627 14.322 0 15.7063 0 17.7438C0 19.2058 0.399824 20.2324 1.34341 21.1345C2.23902 22.021 3.10264 22.3787 4.49403 22.4565C6.23726 22.5498 7.18084 22.2232 8.33234 21.1034C9.37188 20.0924 9.75571 19.1747 9.75571 17.7438C9.75571 16.4373 9.38787 15.4886 8.50826 14.5398C7.46872 13.4044 6.50914 13 4.86186 13C3.74236 13 3.43849 13.0622 2.59086 13.4822ZM6.28524 16.5773C6.78102 17.1217 6.86099 17.8838 6.47715 18.5992C6.1413 19.2369 5.62953 19.5325 4.86186 19.5325C3.56643 19.5325 2.62285 18.2571 3.08664 17.1683C3.69438 15.7841 5.26169 15.4886 6.28524 16.5773Z" fill="#A8B1BC"/>
<path fill-rule="evenodd" clip-rule="evenodd" d="M12.6344 28.8956V13.1244L16.6807 13.1866C20.3271 13.2488 20.8068 13.2955 21.6705 13.6066C25.013 14.7886 27.0761 17.6038 27.0761 21.01C27.0761 24.4629 24.997 27.2625 21.5905 28.4135C20.6469 28.7401 20.1991 28.7712 16.6007 28.8334L12.6344 28.8956ZM23.3497 19.2991C22.8699 18.0393 21.6385 16.8572 20.455 16.5151C19.9112 16.3595 18.9836 16.2662 17.8801 16.2662H16.1529V25.7849L18.2 25.7227C20.0232 25.6761 20.3111 25.6294 21.0467 25.2561C23.2058 24.1674 24.2133 21.5544 23.3497 19.2991Z" fill="#A8B1BC"/>
<path fill-rule="evenodd" clip-rule="evenodd" d="M32.9615 13.4977C32.2738 15.3641 27.6679 28.5535 27.6679 28.6935C27.6679 28.8179 28.1477 28.8645 29.4591 28.8334L31.2343 28.7868L31.7941 27.1848L32.3378 25.5983H38.9589L40.0464 28.8645H41.8536C42.8452 28.8645 43.6608 28.8334 43.6608 28.8023C43.6608 28.7246 38.4791 13.8554 38.3032 13.4199C38.2072 13.1866 37.9194 13.1555 35.6484 13.1555C33.1535 13.1555 33.0895 13.1555 32.9615 13.4977ZM36.9118 19.4858L38.0313 22.7987H35.6324C33.7772 22.7987 33.2494 22.752 33.3134 22.5965L34.4809 19.1903C35.0886 17.4172 35.6164 16.0174 35.6803 16.0796C35.7443 16.1418 36.2881 17.6816 36.9118 19.4858Z" fill="#A8B1BC"/>
<path d="M46.0597 28.8645V13.1555H49.4183V28.8645H46.0597Z" fill="#A8B1BC"/>
<path d="M70.3691 28.8645H73.8875V22.3321H80.7645V28.8645H84.283V13.1555H80.7645V19.5325H73.8875V13.1555H70.3691V28.8645Z" fill="#A8B1BC"/>
<path d="M87.6415 28.8645V13.1555H91V28.8645H87.6415Z" fill="#A8B1BC"/>
</svg>

<svg width="91" height="40" viewBox="0 0 91 40" fill="none" xmlns="http://www.w3.org/2000/svg"><path d="M57.543 13.296c-1.312.404-2.16.948-3.183 1.975-1.04 1.073-1.647 2.224-1.983 3.717-.672 3.08.16 6.05 2.223 7.979 1.743 1.633 3.183 2.115 5.997 2.022 1.68-.062 1.968-.109 2.943-.544 1.216-.56 2.655-1.805 3.263-2.816.4-.653 1.007-2.333 1.007-2.768 0-.171-.352-.218-1.711-.218h-1.727l-.304.731c-.704 1.664-1.983 2.442-4.014 2.442-1.424 0-2.016-.218-2.927-1.058-.736-.668-1.12-1.43-1.344-2.721-.431-2.427.528-4.589 2.431-5.553.72-.373 2.863-.389 3.695-.031a4.035 4.035 0 012.079 2.069l.384.855h2.008c.837.002 1.228.003 1.354-.174.11-.156.017-.449-.16-.998l-.068-.212c-.415-1.291-.96-2.131-1.967-3.08-1.551-1.415-2.974-1.913-5.485-1.898-1.088 0-1.888.094-2.511.28z" fill="#A8B1BC"/><path fill-rule="evenodd" clip-rule="evenodd" d="M2.59 13.482C.849 14.322 0 15.706 0 17.744c0 1.462.4 2.488 1.343 3.39.896.887 1.76 1.245 3.151 1.322 1.743.094 2.687-.233 3.838-1.353 1.04-1.01 1.424-1.928 1.424-3.36 0-1.306-.368-2.254-1.248-3.203C7.468 13.404 6.51 13 4.862 13c-1.12 0-1.424.062-2.271.482zm3.695 3.095c.496.545.576 1.307.192 2.022-.336.638-.847.933-1.615.933-1.296 0-2.24-1.275-1.775-2.364.607-1.384 2.175-1.68 3.198-.59zm6.349 12.319V13.124l4.047.063c3.646.062 4.126.109 4.99.42 3.342 1.182 5.405 3.997 5.405 7.403 0 3.453-2.079 6.252-5.486 7.403-.943.327-1.39.358-4.99.42l-3.966.063zm10.716-9.597c-.48-1.26-1.712-2.442-2.895-2.784-.544-.155-1.471-.249-2.575-.249h-1.727v9.519l2.047-.062c1.823-.047 2.111-.094 2.847-.467 2.159-1.089 3.166-3.702 2.303-5.957zm9.612-5.801c-.688 1.866-5.294 15.056-5.294 15.196 0 .124.48.17 1.791.14l1.775-.047.56-1.602.544-1.587h6.62l1.088 3.267h1.808c.991 0 1.807-.032 1.807-.063 0-.077-5.182-14.947-5.358-15.382-.096-.233-.384-.264-2.655-.264-2.495 0-2.559 0-2.687.342zm3.95 5.988l1.12 3.313h-2.4c-1.855 0-2.383-.047-2.319-.203l1.168-3.406c.608-1.773 1.135-3.173 1.2-3.11.063.062.607 1.602 1.23 3.406z" fill="#A8B1BC"/><path d="M46.06 28.864V13.155h3.358v15.71H46.06zm24.31 0h3.517v-6.532h6.877v6.532h3.519V13.155h-3.519v6.377h-6.876v-6.377h-3.519v15.71zm17.271 0V13.155H91v15.71h-3.359z" fill="#A8B1BC"/></svg>
